icons/tokens/0xD291E7a03283640FDc51b121aC401383A46cC623/logo.svg

<svg width="32" height="32" viewBox="0 0 32 32" fill="none" xmlns="http://www.w3.org/2000/svg">
<path fill-rule="evenodd" clip-rule="evenodd" d="M32 16C32 7.17152 24.8285 0 16 0C7.17152 0 0 7.17152 0 16C0 24.8285 7.17152 32 16 32C24.8285 32 32 24.8285 32 16Z" fill="black"/>
<path fill-rule="evenodd" clip-rule="evenodd" d="M16 2C23.7249 2 30 8.27508 30 16C30 23.7249 23.7249 30 16 30C8.27508 30 2 23.7249 2 16C2 8.27508 8.27508 2 16 2ZM16 3.0052C23.1702 3.0052 28.9948 8.82976 28.9948 16C28.9948 23.1702 23.1702 28.9948 16 28.9948C8.82976 28.9948 3.0052 23.1702 3.0052 16C3.0052 8.82976 8.82976 3.0052 16 3.0052Z" fill="url(#paint0_linear)"/>
<path fill-rule="evenodd" clip-rule="evenodd" d="M16 5.03241C22.0519 5.03241 26.9676 9.94809 26.9676 16C26.9676 22.0519 22.0519 26.9676 16 26.9676C9.94809 26.9676 5.03241 22.0519 5.03241 16C5.03241 9.94809 9.94809 5.03241 16 5.03241ZM16 6.03732C21.4972 6.03732 25.9627 10.5028 25.9627 16C25.9627 21.4972 21.4972 25.9627 16 25.9627C10.5028 25.9627 6.03732 21.4972 6.03732 16C6.03732 10.5028 10.5028 6.03732 16 6.03732Z" fill="url(#paint1_linear)"/>
<path fill-rule="evenodd" clip-rule="evenodd" d="M16 7.71396C20.5722 7.71396 24.2861 11.4279 24.2861 16C24.2861 20.5721 20.5722 24.286 16 24.286C11.4279 24.286 7.71399 20.5721 7.71399 16C7.71399 11.4279 11.4279 7.71396 16 7.71396ZM16 8.71916C20.0175 8.71916 23.2809 11.9826 23.2809 16C23.2809 20.0174 20.0175 23.2808 16 23.2808C11.9826 23.2808 8.71919 20.0174 8.71919 16C8.71919 11.9826 11.9826 8.71916 16 8.71916Z" fill="url(#paint2_linear)"/>
<defs>
<linearGradient id="paint0_linear" x1="2" y1="16" x2="30" y2="16" gradientUnits="userSpaceOnUse">
<stop stop-color="#E6E6E6"/>
<stop offset="1" stop-color="#E5E5E5" stop-opacity="0"/>
</linearGradient>
<linearGradient id="paint1_linear" x1="27.375" y1="16" x2="4.625" y2="16" gradientUnits="userSpaceOnUse">
<stop stop-color="#E6E6E6"/>
<stop offset="1" stop-color="#E5E5E5" stop-opacity="0"/>
</linearGradient>
<linearGradient id="paint2_linear" x1="7.71399" y1="16" x2="24.2861" y2="16" gradientUnits="userSpaceOnUse">
<stop stop-color="#E6E6E6"/>
<stop offset="1" stop-color="#E5E5E5" stop-opacity="0"/>
</linearGradient>
</defs>
</svg>

<svg fill="none" viewBox="0 0 32 32"><path fill="#000" fill-rule="evenodd" d="M32 16c0-8.828-7.172-16-16-16S0 7.172 0 16s7.172 16 16 16 16-7.172 16-16z" clip-rule="evenodd"/><path fill="url(#paint0_linear)" fill-rule="evenodd" d="M16 2c7.725 0 14 6.275 14 14s-6.275 14-14 14S2 23.725 2 16 8.275 2 16 2zm0 1.005c7.17 0 12.995 5.825 12.995 12.995 0 7.17-5.825 12.995-12.995 12.995C8.83 28.995 3.005 23.17 3.005 16 3.005 8.83 8.83 3.005 16 3.005z" clip-rule="evenodd"/><path fill="url(#paint1_linear)" fill-rule="evenodd" d="M16 5.032c6.052 0 10.968 4.916 10.968 10.968S22.052 26.968 16 26.968 5.032 22.052 5.032 16 9.948 5.032 16 5.032zm0 1.005c5.497 0 9.963 4.466 9.963 9.963 0 5.497-4.466 9.963-9.963 9.963-5.497 0-9.963-4.466-9.963-9.963 0-5.497 4.466-9.963 9.963-9.963z" clip-rule="evenodd"/><path fill="url(#paint2_linear)" fill-rule="evenodd" d="M16 7.714c4.572 0 8.286 3.714 8.286 8.286 0 4.572-3.714 8.286-8.286 8.286-4.572 0-8.286-3.714-8.286-8.286 0-4.572 3.714-8.286 8.286-8.286zm0 1.005A7.286 7.286 0 0123.28 16 7.286 7.286 0 0116 23.28 7.286 7.286 0 018.72 16 7.286 7.286 0 0116 8.72z" clip-rule="evenodd"/><defs><linearGradient id="paint0_linear" x1="2" x2="30" y1="16" y2="16" gradientUnits="userSpaceOnUse"><stop stop-color="#E6E6E6"/><stop offset="1" stop-color="#E5E5E5" stop-opacity="0"/></linearGradient><linearGradient id="paint1_linear" x1="27.375" x2="4.625" y1="16" y2="16" gradientUnits="userSpaceOnUse"><stop stop-color="#E6E6E6"/><stop offset="1" stop-color="#E5E5E5" stop-opacity="0"/></linearGradient><linearGradient id="paint2_linear" x1="7.714" x2="24.286" y1="16" y2="16" gradientUnits="userSpaceOnUse"><stop stop-color="#E6E6E6"/><stop offset="1" stop-color="#E5E5E5" stop-opacity="0"/></linearGradient></defs></svg>
